X:1
T:James Gibb editions
T:Cum angelis - Schubert
%%score [ 1 2 3 4 ]
L:1/8
Q:1/4=96
M:4/4
K:C
V:1 treble nm="Soprano" snm="S"
V:2 treble nm="Alto" snm="A"
V:3 treble-8 nm="Tenor" snm="T"
V:4 bass nm="Bass" snm="B"
V:1
"^Cum angelis et pueris, D696:5""^Franz Schubert\n(1797-1828)" c2 | c3 c B2 d2 | c3 c B2 d2 | %3
w: Cum|an- ge- lis et|pu- e- ris fi-|
 e2 d2 c2 BB | (A2 B2 c4) | B6 c2 | c3 c B2 d2 | c4 B2 d2 | (e2 d2 c2 B2 | A2 B2 c4) | B6 d2 | %11
w: de- les in- ve- ne-|ra\- * *|mur tri-|um- pha- to- ri|mor- tis cla-|man\- * * *||tes: Ho-|
 (e4 =f4 | d8) | !fermata!e8 |] %14
w: san\- *||na!|
V:2
 E2 | E3 E F2 F2 | E3 E F2 F2 | E2 G2 ^F2 GG | (G6 ^F2) | G6 E2 | E3 E =F2 F2 | E4 F2 F2 | %8
w: Cum|an- ge- lis et|pu- e- ris fi-|de- les in- ve- ne-|ra\- *|mur tri-|um- pha- to- ri|mor- tis cla-|
 (E2 G2 ^F2 G2- | G6 ^F2) | G6 G2 | (G4 A4 | G8) | !fermata!G8 |] %14
w: man\- * * *||tes: Ho-|san\- *||na!|
V:3
 G2 | G3 G G2 G2 | G3 G G2 G2 | G2 G2 A2 GG | (e2 d2 c4) | d6 G2 | G3 G G2 G2 | G4 G2 G2 | %8
w: Cum|an- ge- lis et|pu- e- ris fi-|de- les in- ve- ne-|ra\- * *|mur tri-|um- pha- to- ri|mor- tis cla-|
 (G4 A2 G2 | e2 d2 c4) | d6 B2 | (c8- | c4 B4) | !fermata!c8 |] %14
w: man\- * *||tes: Ho-|san\-||na!|
V:4
 C,2 | C,3 C, D,2 B,,2 | C,3 C, D,2 B,,2 | C,2 B,,2 D,2 E,E, | (C,2 B,,2 A,,4) | G,,6 C,2 | %6
w: Cum|an- ge- lis et|pu- e- ris fi-|de- les in- ve- ne-|ra\- * *|mur tri-|
 C,3 C, D,2 B,,2 | C,4 D,2 B,,2 | (C,2 B,,2 D,2 E,2 | C,2 B,,2 A,,4) | B,,6 G,2 | (C,4 F,,4 | %12
w: um- pha- to- ri|mor- tis cla-|man\- * * *||tes: Ho-|san\- *|
 G,,8) | !fermata!C,8 |] %14
w: |na!|

